common/resources/fonts/svg/pie-chart.svg

<?xml version="1.0" encoding="UTF-8" standalone="no"?>
<svg width="1024px" height="1024px" viewBox="0 0 1024 1024" version="1.1" xmlns="http://www.w3.org/2000/svg" xmlns:xlink="http://www.w3.org/1999/xlink">
    <!-- Generator: Sketch 39.1 (31720) - http://www.bohemiancoding.com/sketch -->
    <title>pie-chart</title>
    <desc>Created with Sketch.</desc>
    <defs></defs>
    <g id="Page-1" stroke="none" stroke-width="1" fill="none" fill-rule="evenodd">
        <g id="pie-chart" fill="#221F20">
            <path d="M472.540989,149.811209 C263.221451,151.502547 94.0390856,327.690486 94.0390856,544.795329 C94.0390856,762.950221 264.860485,939.799748 475.579308,939.799748 C686.29813,939.799748 857.11953,762.950221 857.11953,544.795329 L472.540989,544.795329 L472.540989,149.811209 Z M548.4403,84.5164354 L548.4403,476.374395 L929.960914,476.374395 C928.327228,259.669088 758.144865,84.5164354 548.4403,84.5164354 Z M591.220962,131.557402 C621.666533,135.512161 651.288576,143.717871 679.701174,156.094256 C719.870433,173.591713 756.000484,198.663743 787.087765,230.613695 C818.16435,262.552574 842.64291,299.762006 859.842519,341.207625 C871.943207,370.367285 880.06975,400.79291 884.139261,432.084043 L591.220962,432.084043 L591.220962,131.557402 Z" id="Combined-Shape"></path>
        </g>
    </g>
</svg>

<svg width="1024" height="1024" viewBox="0 0 1024 1024">
    <path d="M472.541 149.811c-209.32 1.692-378.502 177.88-378.502 394.984C94.04 762.95 264.86 939.8 475.58 939.8s381.54-176.85 381.54-395.005H472.542V149.811zm75.9-65.295v391.858h381.52C928.327 259.67 758.145 84.516 548.44 84.516zm42.78 47.041c30.446 3.955 60.068 12.16 88.48 24.537 40.17 17.498 76.3 42.57 107.387 74.52 31.076 31.939 55.555 69.148 72.755 110.594a356.54 356.54 0 0 1 24.296 90.876H591.221V131.557z" fill="#221F20" fill-rule="evenodd"/>
</svg>
